X:1
T:Title
%%score { 1 | 2 }
L:1/8
M:4/4
K:C
V:1 treble nm="Grand Piano"
V:2 bass 
V:1
 z4 z2[Q:1/4=100] [EG]2 | [EG]3 [EG] [_E^F][=EG][=FA][EG] | [CE]2 [EG]2 [Ec][Cc][DB][_EA] | %3
 [EG]3 [EG] [_E^F][=EG][=FA][EG] |[M:9/8] E2 E- E D2- D G2 | %5
[M:4/4] [EG]3 [EG] [_E^F][=EG][=FA][EG] | [Gc]2 d2 ecB[Gc] | [Gd]3 [^Fd] [Gd][DB][DG][EA] | %8
[M:7/8] [DB]2 [CDA]2 [B,DG]3 |[M:1/4] [B,FG]2 |[M:4/4] [EG][FA][EG][CE] [EG]2 [Ec][Fd] | %11
 [Ge]2 [Gc]2 [Fd][Fc][GB][FA] | [EG]2 [EG][FA] [EG]2 [CE]2 | %13
[M:9/8] [FA][EG][DF] [CE] [B,D]2- [B,D] [FG]2 |[M:4/4] [EG][FA][EG][CE] [EG]2 [Ec][Fd] | %15
 [Ge]2 [Gc]2 [Fd][Fc][GB][FA] | [EG]2 [EG][FA] [EG]2 [Gc][Gc] |[M:3/4] ed [Ec][FB] [Ec]2 |] %18
V:2
 z4 z2 [C,C]2 | [C,C]3 [C,C] [C,C][C,C][C,C][C,C] | [C,G,]2 [C,C]2 [C,G,][C,E,][C,F,][C,^F,] | %3
 [C,G,]3 [C,C] [C,C][C,C][C,C][C,C] |[M:9/8] [C,G,C]2 [E,G,C]- [E,G,C] [G,B,]2- [G,B,] [G,B,F]2 | %5
[M:4/4] [C,C]3 [C,C] [C,C][C,C][C,C][C,C] | [E,C]2[K:treble] [G,B,G]2 [CG][CE][G,DF][K:bass][E,C] | %7
 [D,B,]3 [C,A,] [B,,G,][G,,G,][B,,G,][C,G,] |[M:7/8] [D,G,]2 D,2 G,,3 |[M:1/4] G,2 | %10
[M:4/4] [C,C][C,C][C,C][C,G,] [C,C]2 [C,G,][C,G,] | [C,C]2 [E,C]2 [F,A,][F,A,][F,B,][F,C] | %12
 [C,C]2 [C,C][C,C] [C,C]2 [C,G,]2 |[M:9/8] [C,C][C,C][C,G,] [C,G,] [G,,G,]2- [G,,G,] [G,B,]2 | %14
[M:4/4] [C,C][C,C][C,C][C,G,] [C,C]2 [C,C][C,C] | [C,C]2 [E,C]2 [F,A,][F,A,][F,B,][F,C] | %16
 [C,C]2 [C,C][C,C] [C,C]2 [E,C][E,C] | %17
[M:3/4][K:treble] [G,CG][G,F][K:bass] [G,,G,][G,,G,] [C,G,]2 |] %18

